X:1
T:The Flo'ers o' the Forest
M:4/4
L:1/4
Q:70
S:Learnt from a tape of Judith Linton
K:A
Z:Philip Whittaker  scots-l 2002-6-11
E2 E>F|EFA B/2c/2|dcBA|F<AEC|
B,/2C/2EE>F|EFAB/2c/4d/4|c2 B>A|A3z|!
=G2 G/2/B/2A/2G/2 | F>EFA|EcBA|F>AEC|
=G2 G/2B/2A/2/G/2| F>EFA|EcBA|A3z|!
cee>f| fedc|ecBA| FAEC|
cee>f| fedc|B/2c/2d/2c/2 B>A| A3 B|!
cee>f| fedc|ecBA| FAEC|
B,/2C/2EE>F|EFAB/2c/4d/4|c2 B>A|A3|
